X:1
T:Standin In The Need of Prayer
T:Angels waiting at the door
T:Copyright 1881 by The Riverside Press
T:Rodeheaver's Plantation Melodies
T:Rodeheaver's Plantation Melodies
Z:Rodeheaver's Plantation Melodies
%%score [ 1 2 3 4 ]
L:1/8
Q:1/4=70
M:4/4
K:Db
V:1 treble nm="Soprano" snm="S."
V:2 treble nm="Alto" snm="A."
V:3 bass nm="Tenor" snm="T."
V:4 bass nm="Bass" snm="B."
V:1
 DE | FFFF FEDF | A4 !fermata!A2 A>A | A2 A2 A>A A>A | F6 DE | FFFF | FEDF | %7
w: |||||||
 A4 !fermata!A2 !fermata!d>A | A2 F2 F>F E>E | D6 z2 | f d2 A d>A FA | e>c Ac d4 | f d2 A d>A FA | %13
w: |||Tell all my fa- ther's chil- dren.||Tell al my ta- ther's chil- dren.|
 A>F EE !fermata!D2 |] %14
w: |
V:2
 D2 | DDDD D2 DF | F4 !fermata!F2 F>F | F2 F2 F>F F>F | D6 D2 | DDDD | D2 D2 | %7
w: My|sis- ter's took her flight and- *|gone home. And the|an- gel's wait- ing at the|door. My|sis * took her|flight and|
 F4 !fermata!F2 !fermata!F>F | F2 D2 D>D C>C | D6 z2 | z8 | e>c Ac d4 | z8 | F>D CC !fermata!D2 |] %14
w: gone home. And the|an- gel's wait- ing at the|door.||Don't you grieve for me.||Don't you grieve for me.|
V:3
 F,G, | A,A,A,A, A,G,F,A, | A,4 !fermata!D2 D>D | D2 A,2 A,>A, A,>A, | A,6 F,G, | A,A,A,A, | %6
 A,G,F,A, | (D,2 F,)A, !fermata!D2 !fermata!D>D | D2 A,2 A,>A, G,>G, | F,6 z2 | z8 | E>C A,C D4 | %12
 z8 | A,>A, G,G, !fermata!F,2 |] %14
V:4
 D,2 | D,D,D,D, D,2 D,2 | D,4 !fermata!D,2 D,>D, | D,2 D,2 D,>D, D,>D, | D,6 F,2 | D,D,D,D, | %6
 D,2 D,2 | D,4 !fermata!D,2 !fermata!D,>D, | D,2 D,2 A,,>A,, A,,>A,, | D,6 z2 | z8 | E>C A,C D4 | %12
"_2. She has laid down her cross and gone home, And the angel's waiting at the door.\n\n3. She has taken up her crown and gone home, And the angel's waiting at the door." z8 | %13
 A,,>A,, A,,A,, !fermata!D,2 |] %14

